X: 1301
T: Boomerang Hornpipe
B: australian traditional tunes wiki
M:4/4
L:1/8
R: Hornpipe
Q: 1/4=100
K:D
V:1 
|:"D"d>A F>A D>F A>F|"Bm"D>F B>A "D"F>Ad2|A>d e>e "A7"(3fgf e>c|"D"d>c d>e "A7"a2f2|!
"D"d>A F>A D>F A>F|"Bm"D>F B>A "D"F>Ad2|A>d e>f "A7"(3fgf e>c|"D"d2d2d2f>a:|!
|:"D"a>f d>fa2a2|"A7"f>g e>fg2f>g|"D"a>f d>B A>d f>f|"Em"e>d B>d "A7"A4|!
"D"a>f d>f [a2A2][A2a2]|"A7"f>g e>fg2f>g|"D"a>f d>B "A7"A>f e>c|"D"d2d2d4:|
% abcbook-tune_id 6342d53ae7af0cdd25dcfc13


% abcbook-boost 0
% abcbook-tablature 
% abcbook-transpose 
% abcbook-lastupdated 1665324358110
% abcbook-soundfonts 
% abcbook-repeats 1
% NFF Book 2008

